docs/.gitbook/assets/icon-cloud-lightning-16@dark.svg

<svg width="32" height="32" viewBox="0 0 16 16" fill="none" xmlns="http://www.w3.org/2000/svg">
<rect x="0" y="0" width="16" height="16" fill="#181c1f"/>
<path fill-rule="evenodd" clip-rule="evenodd" d="M8 2.5C6.10772 2.5 4.56593 4.00193 4.50207 5.87832C4.49096 6.20456 4.27012 6.48615 3.95593 6.57469C3.11516 6.81163 2.5 7.58495 2.5 8.5C2.5 9.47925 3.20453 10.2955 4.13455 10.4668C4.13487 10.4669 4.13518 10.4669 4.1355 10.467L4.38385 10.512C4.79141 10.586 5.06188 10.9763 4.98796 11.3838C4.91404 11.7914 4.52371 12.0619 4.11615 11.988L3.86615 11.9426L3.8645 11.9423C2.23487 11.643 1 10.2165 1 8.5C1 7.08481 1.83942 5.86719 3.04653 5.31537C3.38045 2.87766 5.47081 1 8 1C10.5292 1 12.6196 2.87766 12.9535 5.31538C14.1606 5.86719 15 7.08481 15 8.5C15 10.2165 13.7651 11.643 12.1355 11.9423L12.1339 11.9426L11.8838 11.988C11.4763 12.0619 11.086 11.7914 11.012 11.3838C10.9381 10.9763 11.2086 10.586 11.6162 10.512L11.8645 10.467C11.8648 10.4669 11.8651 10.4669 11.8655 10.4668C12.7955 10.2955 13.5 9.47925 13.5 8.5C13.5 7.58494 12.8848 6.81163 12.0441 6.5747C11.7299 6.48616 11.509 6.20456 11.4979 5.87832C11.4341 4.00193 9.89228 2.5 8 2.5ZM8.58541 7.07918C8.95589 7.26442 9.10606 7.71493 8.92082 8.08541L7.96353 10H9.25C9.50211 10 9.73735 10.1267 9.87613 10.3371C10.0149 10.5476 10.0387 10.8137 9.93936 11.0454L8.43936 14.5454C8.27619 14.9262 7.83528 15.1025 7.45456 14.9394C7.07384 14.7762 6.89747 14.3353 7.06064 13.9546L8.1126 11.5H6.75C6.49007 11.5 6.24867 11.3654 6.11201 11.1443C5.97536 10.9232 5.96293 10.6471 6.07918 10.4146L7.57918 7.41459C7.76442 7.04411 8.21493 6.89394 8.58541 7.07918Z" fill="#fff"/>
</svg>

<svg xmlns="http://www.w3.org/2000/svg" width="32" height="32" fill="none" viewBox="0 0 16 16"><path fill="#181c1f" d="M0 0h16v16H0z"/><path fill="#fff" fill-rule="evenodd" d="M8 2.5a3.5 3.5 0 0 0-3.498 3.378.75.75 0 0 1-.546.697 2.001 2.001 0 0 0 .179 3.892l.249.045a.75.75 0 0 1-.268 1.476l-.25-.045h-.002a3.5 3.5 0 0 1-.817-6.628 5 5 0 0 1 9.907 0 3.5 3.5 0 0 1-.819 6.627h-.001l-.25.046a.75.75 0 0 1-.268-1.476l.248-.045h.002a2 2 0 0 0 .178-3.892.75.75 0 0 1-.546-.697A3.5 3.5 0 0 0 8 2.5m.585 4.58a.75.75 0 0 1 .336 1.005L7.964 10H9.25a.75.75 0 0 1 .69 1.045l-1.5 3.5a.75.75 0 1 1-1.38-.59L8.114 11.5H6.75a.75.75 0 0 1-.67-1.085l1.5-3a.75.75 0 0 1 1.005-.336" clip-rule="evenodd"/></svg>
